X:525
T:The Jovial Butler
C:Naomi Alexander, 1993
L:1/8
M:6/8
R:Jig
S:Colin Hume's website,  colinhume.com  - chords can also be printed below the stave.
Q:3/8=112
K:A
P:A
|: "A"Ace "/"Ace | "Bm"ded "E7"c2B | "F#m"AGA "D"Bcd | "E7"e3 "/"E3 |\
"A"Ace "/"Ace | "Bm"ded "E7"c2B | "A"ecA "E7"EFG | "A"A3 "/"A,3 :|
P:B
|: "E7"BcB "/"Bcd | "A"ecA "/"E2E | "D"FEF "E7"GFG | "A"A2c "/"e2e |\
"Bm"BcB "E7"Bcd | "A"ecA "A7"E2E | "D"FEF "E7"GFG | "A"A3 "/"A,3 :|

